packages/core/src/svgs/networks/mono/viction.svg

<svg width="24" height="24" viewBox="0 0 24 24" fill="none" xmlns="http://www.w3.org/2000/svg">
<path d="M22 2V10.6533C18.8039 11.4683 15.453 11.9009 12 11.9009C8.54699 11.9009 5.19606 11.4673 2 10.6533V2C5.19606 2.814 8.54699 3.24764 12 3.24764C15.453 3.24764 18.8039 2.815 22 2Z" fill="white"/>
<path d="M2 22V13.3467C5.19606 12.5317 8.54699 12.0991 12 12.0991C15.453 12.0991 18.8039 12.5327 22 13.3467V22C18.8039 21.186 15.453 20.7524 12 20.7524C8.54699 20.7524 5.19606 21.185 2 22Z" fill="white"/>
</svg>

<svg xmlns="http://www.w3.org/2000/svg" width="24" height="24" fill="none" viewBox="0 0 24 24">
    <path fill="#fff" d="M22 2v8.653a40.4 40.4 0 0 1-10 1.248c-3.453 0-6.804-.434-10-1.248V2a40.5 40.5 0 0 0 10 1.248c3.453 0 6.804-.433 10-1.248M2 22v-8.653a40.4 40.4 0 0 1 10-1.248c3.453 0 6.804.434 10 1.248V22a40.5 40.5 0 0 0-10-1.248c-3.453 0-6.804.433-10 1.248"/>
</svg>
